assets/img/icons/edu.svg

<svg width="24" height="24" viewBox="0 0 24 24" fill="none" xmlns="http://www.w3.org/2000/svg">
<path d="M19.9996 22.5V24H3.99964V22.5C3.99964 20.019 6.01864 18 8.49964 18H8.68064L12.0146 22L15.3476 18H15.4996C17.9806 18 19.9996 20.019 19.9996 22.5ZM13.7216 0.390994C12.6746 -0.130006 11.3226 -0.130006 10.2756 0.390994L2.05664 4.49999L10.2756 8.60899C10.7996 8.87099 11.3996 9.00199 11.9996 9.00199C12.5996 9.00199 13.1996 8.87099 13.7236 8.60899L19.9996 5.47199V12.001H21.9996V4.50099L13.7216 0.390994ZM17.9996 8.70699L14.6176 10.398C13.8296 10.793 12.9236 11.002 11.9996 11.002C11.0756 11.002 10.1726 10.794 9.38264 10.398L5.99964 8.70699V9.99999C5.99964 13.309 8.69064 16 11.9996 16C15.3086 16 17.9996 13.309 17.9996 9.99999V8.70699Z" fill="#BF1F1F"/>
</svg>

<svg width="24" height="24" fill="none" xmlns="http://www.w3.org/2000/svg"><path d="M20 22.5V24H4v-1.5C4 20.019 6.019 18 8.5 18h.18l3.335 4 3.333-4h.152c2.48 0 4.5 2.019 4.5 4.5ZM13.722.391c-1.047-.521-2.4-.521-3.446 0L2.056 4.5l8.22 4.109A3.878 3.878 0 0 0 12 9.002c.6 0 1.2-.131 1.724-.393L20 5.472v6.529h2v-7.5L13.722.391ZM18 8.707l-3.382 1.691a5.869 5.869 0 0 1-2.618.604 5.857 5.857 0 0 1-2.617-.604L6 8.707V10c0 3.309 2.69 6 6 6 3.309 0 6-2.691 6-6V8.707Z" fill="#BF1F1F"/></svg>
